polaris-icons/icons/new-icons/DataVisualizationMajor.svg

<svg width="20" height="20" viewBox="0 0 20 20" fill="none" xmlns="http://www.w3.org/2000/svg">
<path d="M13.5 6.75C13.5 6.33579 13.1642 6 12.75 6C12.3358 6 12 6.33579 12 6.75V10.25C12 10.6642 12.3358 11 12.75 11C13.1642 11 13.5 10.6642 13.5 10.25V6.75Z" fill="#4A4A4A"/>
<path d="M7.25 8.5C7.66421 8.5 8 8.83579 8 9.25V10.25C8 10.6642 7.66421 11 7.25 11C6.83579 11 6.5 10.6642 6.5 10.25V9.25C6.5 8.83579 6.83579 8.5 7.25 8.5Z" fill="#4A4A4A"/>
<path d="M10.75 8C10.75 7.58579 10.4142 7.25 10 7.25C9.58579 7.25 9.25 7.58579 9.25 8V10.25C9.25 10.6642 9.58579 11 10 11C10.4142 11 10.75 10.6642 10.75 10.25V8Z" fill="#4A4A4A"/>
<path fill-rule="evenodd" clip-rule="evenodd" d="M3.25 4.25C3.25 3.83579 3.58579 3.5 4 3.5H16C16.4142 3.5 16.75 3.83579 16.75 4.25C16.75 4.66421 16.4142 5 16 5V11C16 12.6156 14.7229 13.9329 13.1231 13.9975L13.7115 15.7627C13.8425 16.1557 13.6301 16.5804 13.2372 16.7114C12.8442 16.8424 12.4195 16.63 12.2885 16.237L11.5428 14H8.45718L7.7115 16.237C7.58052 16.63 7.15578 16.8424 6.76282 16.7114C6.36986 16.5804 6.15749 16.1557 6.28848 15.7627L6.87687 13.9975C5.27711 13.9329 4 12.6156 4 11V5C3.58579 5 3.25 4.66421 3.25 4.25ZM5.5 5H14.5V11C14.5 11.8284 13.8284 12.5 13 12.5H7C6.17157 12.5 5.5 11.8284 5.5 11V5Z" fill="#4A4A4A"/>
</svg>

<svg viewBox="0 0 20 20" xmlns="http://www.w3.org/2000/svg"><path d="M13.5 6.75a.75.75 0 0 0-1.5 0v3.5a.75.75 0 0 0 1.5 0v-3.5Z" fill="#5C5F62"/><path d="M7.25 8.5a.75.75 0 0 1 .75.75v1a.75.75 0 0 1-1.5 0v-1a.75.75 0 0 1 .75-.75Z" fill="#5C5F62"/><path d="M10.75 8a.75.75 0 0 0-1.5 0v2.25a.75.75 0 0 0 1.5 0v-2.25Z" fill="#5C5F62"/><path fill-rule="evenodd" d="M3.25 4.25a.75.75 0 0 1 .75-.75h12a.75.75 0 0 1 0 1.5v6a3 3 0 0 1-2.877 2.998l.588 1.765a.75.75 0 1 1-1.422.474l-.746-2.237h-3.086l-.746 2.237a.75.75 0 1 1-1.423-.474l.589-1.765a3 3 0 0 1-2.877-2.998v-6a.75.75 0 0 1-.75-.75Zm2.25.75h9v6a1.5 1.5 0 0 1-1.5 1.5h-6a1.5 1.5 0 0 1-1.5-1.5v-6Z" fill="#5C5F62"/></svg>
